X:103
T: ES LEBE WAS AUF ERDEN STOLZIERT
N: B0591
O: Europa, Mitteleuropa, Deutschland
R: Staende -, Jaeger - Lied
M: 6/8
L: 1/8
K: C
G, | E,2G,G,2C | C3G,2
G, | C2CCB,C | D4z
D | DB,DDB,D | D3G,2
G, | E2EDED | C4z
C | C2CCB,A, | A,3B,2
B, | DCA,DCA, | B,4z
B, | C2CCB,A, | A,3B,2
B, | D2G,A,B,A, | G,2z3

